!!!!SEGMENT: pl-wtm--670-sp-3678--001-009_reichardt-johann-friedrich--piosenki-dla-mlodocianego-wieku-piotr-maszynski-9-roza-polna.krn
!!!cenid: 18xx:4761
!!!COM: Reichardt, Johann Friedrich
!!!COM-rismID: pe40133
!!!CDT: 1752/11/25-1814/06/27
!!!CNT: German
!!!GTL: Piosenki dla młodocianego wieku (Piotr Maszyński)
!!!OTL: 9. Róża polna
!!!OMV: 009
!!!PDT: 1871
!!!AGN: Secular; Song; Children
!!!YEC: Copyright 2022 Narodowy Instytut Fryderyka Chopina (https://polishscores.org)
!!!YEM: License CC-BY-4.0 (https://creativecommons.org/licenses/by/4.0)
!!!SMS-siglum: PL-Wtm
!!!SMS-shelfmark: 670 śp 3678
!!!SMS-variant:
!!!SMS-altvar:
!!!SMS-shelfwork: 001-009 G
!!!NIFC-rismSourceID: 1001185478
!!!NIFC-rismChildID: 1001185478
!!!NIFC-islandoraID: pl-wtm:57754
!!!URL-pdf-islandora: https://repozytorium.nifc.pl/islandora/object/pl-wtm%3A57754/datastream/PDF/view
!!!URL-scan: https://polish.musicsources.pl/pl/lokalizacje/galeria/druki-muzyczne/19483/7 @EN{Scan on Polish Music Sources Website} @PL{Skany w portalu Dziedzictwo Muzyki Polskiej w otwartym dostępie}
!!!IIIF:
!!!ONB-nifc:
!!!AIN: 1 canto 1 piano
!!!key: F
**kern	**fing	**kern	**fing	**dynam	**kern	**text	**text	**text	**dynam
*part2	*	*part2	*	*part2	*part1	*part1	*part1	*part1	*part1
*staff3	*	*staff2	*	*staff2/3	*staff1	*staff1	*staff1	*staff1	*
*IGacmp	*	*IGacmp	*	*	*	*	*	*	*
*ICklav	*	*ICklav	*	*	*ICvox	*	*	*	*
*Ipiano	*	*Ipiano	*	*	*Icanto	*	*	*	*
*I"Fortepian.	*	*I"Fortepian.	*	*	*I"Śpiew.	*	*	*	*
*I'	*	*I'	*	*	*I'	*	*	*	*
*clefF4	*	*clefG2	*	*	*clefG2	*	*	*	*
*k[b-]	*	*k[b-]	*	*	*k[b-]	*	*	*	*
*F:	*	*F:	*	*	*F:	*	*	*	*
*M2/4	*	*M2/4	*	*	*M2/4	*	*	*	*
=1	=1	=1	=1	=1	=1	=1	=1	=1	=1
*	*below	*	*	*	*	*	*	*	*
!!LO:TX:a:B:t=Allegretto con moto.
!	!	!	!	!LO:DY:rj	!	!	!	!	!LO:DY:a
4F\	2	8fL 8A'/	1 5	p	8f/	Uj-	Chło-	Chło-	p
.	.	8f 8A'/	.	.	8f/	-rzał	-piec	-piec	.
4F\	.	8f 8A'/	.	.	8f/	chło-	mó-	zer-	.
.	.	8fJ 8A'/	.	.	8f/	-piec	-wi:	-wał	.
=2	=2	=2	=2	=2	=2	=2	=2	=2	=2
4C/	.	8gL 8c'/	2 5	.	8g/	pol-	„zer-	mi-	.
.	.	8fJ 8A'/	1 5	.	8f/	-ny	-wę	-mo	.
4F\	.	4f 4A'/	.	.	4f/	kwiat,	cię,	to	.
=3	=3	=3	=3	=3	=3	=3	=3	=3	=3
4E\	.	8ccL 8g'/	2 5	.	8cc\	ró-	ró-	ró-	.
.	.	8cc 8g'/	.	.	8cc\	-żę	-żo	-żę	.
8F'\L	.	8a 8f'/	.	.	8a/	na	na	na	.
8A'\J	.	8fJ 8c'/	1 3	.	8f/	po-	po-	po-	.
!!LO:LB:g=original
=4	=4	=4	=4	=4	=4	=4	=4	=4	=4
*	*above	*	*	*	*	*	*	*	*
(4G 4C\	5 1	(>4b- 4e/	1 5	.	4b-\	-la-	-la-	-la-	.
8F\)	.	8a 8f/)	.	.	8a/	-nie,	-nie,”	-nie,	.
8r	.	8r	.	.	8r	.	.	.	.
=5	=5	=5	=5	=5	=5	=5	=5	=5	=5
4F'\	.	8fL 8A'/	.	.	8f/	czar	ró-	choć	.
.	.	8f 8A'/	.	.	8f/	świe-	-ża	bo-	.
4F'\	.	8f 8A'/	.	.	8f/	-żo-	mó-	-le-	.
.	.	8fJ 8A'/	.	.	8f/	-ści	-wi:	-śnie	.
=6	=6	=6	=6	=6	=6	=6	=6	=6	=6
4C/	.	8gL 8c'/	.	.	8g/	tchnął	„wstrzy-	kłó-	.
.	.	8fJ 8A'/	.	.	8f/	z jej	-maj	-ła	.
4F\	.	4f 4A/	.	.	4f/	szat,	się,”	go,	.
!!LO:LB:g=original
=7	=7	=7	=7	=7	=7	=7	=7	=7	=7
4FF/	.	8aL 8f'/	.	.	8a/	chło-	po	je-	.
.	.	8a 8f'/	.	.	8a/	-piec	co	-mu	.
4F\	.	8a 8f'/	.	.	8a/	na	masz	tyl-	.
.	.	8aJ 8f'/	.	.	8a/	nią	nie-	-ko	.
=8	=8	=8	=8	=8	=8	=8	=8	=8	=8
*	*below	*	*	*	*	*	*	*	*
8C'\L	5	8b-L 8g'/	.	.	8b-\	pa-	-wo-	o	.
8F'\J	2	8aJ 8f'/	.	.	8a/	-trzył	-lić	nią	.
4F\	.	4a 4f/	.	.	4a/	rad	mię,	szło,	.
=9	=9	=9	=9	=9	=9	=9	=9	=9	=9
8E'\L	.	8ccL 8g'/	.	.	8cc\	jak	ja	jej	.
8C'\	.	8cc 8e'/	.	.	8cc\	na	bo-	o	.
8F'\	.	8a 8f'/	.	.	8a/	ma-	-le-	zmi-	.
8A'\J	.	8fJ 8c'/	.	.	8f/	-lo-	-śnie	-ło-	.
=10	=10	=10	=10	=10	=10	=10	=10	=10	=10
(4G 4C\	.	(>4b- 4e/	.	.	4b-\	-wa-	ra-	-wa-	.
8A 8F\)	.	8a 8f/)	.	.	8a/	-nie.	-nię.	-nie.	.
8r	.	8r	.	.	8r	.	.	.	.
!!LO:LB:g=original
=11	=11	=11	=11	=11	=11	=11	=11	=11	=11
!	!	!	!	!LO:DY:t=più %s	!	!	!	!	!LO:DY:a:t=piu %s
4FF/	.	8ccL 8a'/	.	f	8cc\	Ró-	.	.	f
.	.	8a 8f'/	.	.	8a/	-ża,	.	.	.
4F\	.	8cc 8a'/	.	.	8cc\	ró-	.	.	.
.	.	8aJ 8f'/	.	.	8a/	-ża	.	.	.
=12	=12	=12	=12	=12	=12	=12	=12	=12	=12
4c 4F\	.	8ffL 8a'\	.	.	8ff\	pol-	.	.	.
.	.	8ccJ 8a'\	.	.	8cc\	-ny	.	.	.
4c 4F\	.	4cc 4a\	2 4	.	4cc\	kwiat,	.	.	.
=13	=13	=13	=13	=13	=13	=13	=13	=13	=13
8B-'\L	2	8ddL 8f'/	.	.	8dd\	ró-	.	.	.
8A'\	1	8cc 8f'/	.	.	8cc\	-ża	.	.	.
8G'\	.	8b- 8e'/	1 5	.	8b-\	na	.	.	.
8F'\J	.	8aJ 8f'/	.	.	8a/	po-	.	.	.
=14	=14	=14	=14	=14	=14	=14	=14	=14	=14
(4B- 4C\	.	(4g 4e/	1 3	.	4g/	-la-	.	.	.
8A 8F\)	.	8f/)	.	.	8f/	-nie!	.	.	.
8r	.	8r	.	.	8r	.	.	.	.
==	==	==	==	==	==	==	==	==	==
*-	*-	*-	*-	*-	*-	*-	*-	*-	*-
!!!system-decoration: s1{(s2,s3)}
!!!RDF**kern: > = above
!!!RDF**kern: < = below
!!!RDF**kern: N = linked
!!!ENC: Andrzej Gręziak
!!!EED: Katarzyna Serwa
!!!END: 2025-03-25
!!!EEV: 2025-03-27
